azure-icons/machinelearning-163-Machine-Learning-Studio-Web-Services.svg

<svg xmlns="http://www.w3.org/2000/svg" width="18" height="18"><defs><linearGradient id="a" x1="5.77" y1="7.08" x2="5.88" y2="17.58" gradientUnits="userSpaceOnUse"><stop offset="0" stop-color="#32d4f5"/><stop offset=".32" stop-color="#31d1f3"/><stop offset=".53" stop-color="#2ec9eb"/><stop offset=".7" stop-color="#29bade"/><stop offset=".86" stop-color="#22a5cb"/><stop offset="1" stop-color="#198ab3"/><stop offset="1" stop-color="#198ab3"/></linearGradient></defs><path d="M15.08 11.65a6.25 6.25 0 11-7.67-9.88l.07-.05a6.25 6.25 0 017.6 9.93" fill="#f2f2f2"/><path d="M16.24 2.94a6.26 6.26 0 00-8.76-1.23l-.07.05A6.26 6.26 0 0011.26 13a6.16 6.16 0 003.82-1.31 6.28 6.28 0 001.16-8.75zM5.81 6.31a5.55 5.55 0 01.61-2.13h1.51a10.84 10.84 0 00-.29 2.13zm3-2.13h2.08v2.13H8.45a9.41 9.41 0 01.32-2.13zm2.88 0h2.08a9.41 9.41 0 01.32 2.13h-2.4zm-.8 2.93v2.12H8.77a9.24 9.24 0 01-.32-2.12zm.8 0h2.4a9.24 9.24 0 01-.32 2.12h-2.12zm3.21 0h1.82a5.61 5.61 0 01-.6 2.12h-1.56a10 10 0 00.3-2.12zm0-.8a10.13 10.13 0 00-.3-2.13h1.52a5.41 5.41 0 01.6 2.13zm.71-2.93h-1.29a5.92 5.92 0 00-.88-1.66 5.4 5.4 0 012.13 1.66zm-2.12 0h-1.8v-2a3.27 3.27 0 011.76 2zm-2.6-2v2H9.05a3.27 3.27 0 011.8-2.04zM7.91 2.4a5.39 5.39 0 011.1-.65 6.12 6.12 0 00-.88 1.67h-1.2a5.05 5.05 0 01.98-1.02zm-2.1 4.71h1.83a10.74 10.74 0 00.29 2.12H6.42a5.22 5.22 0 01-.61-2.12zm1.13 2.94h1.24a6.06 6.06 0 00.88 1.66 5.35 5.35 0 01-2.12-1.66zm2.11 0h1.8v2A3.27 3.27 0 019.05 10zm2.6 2V10h1.8a3.27 3.27 0 01-1.8 2.08zM14.59 11a5 5 0 01-1.16.68 5.82 5.82 0 00.89-1.68h1.25a5.68 5.68 0 01-.98 1z" fill="#0078d4"/><path d="M10.85 17.5H.89c-.31 0-.5-.51-.32-.77l3.43-5a.39.39 0 00.07-.23V8.2a.2.2 0 00-.2-.2h-.18a.39.39 0 01-.39-.39v-.18A.39.39 0 013.69 7h4.37a.4.4 0 01.39.4v.18a.4.4 0 01-.39.42h-.19a.19.19 0 00-.19.2v3.31a.34.34 0 00.07.22l3.43 5c.18.27-.01.77-.33.77z" fill="url(#a)"/><path d="M2.24 16.18l2.47-3.6a.87.87 0 00.16-.52v-1.45a.29.29 0 01.29-.28h1.4a.29.29 0 01.29.28v1.55a.6.6 0 00.1.35l2.53 3.67a.22.22 0 01-.18.34H2.42a.22.22 0 01-.18-.34z" fill="#fff"/></svg>

<svg id="b97bbf6b-86e6-4ebc-9146-dd962aa81e49"  xmlns="http://www.w3.org/2000/svg" width="18" height="18" viewBox="0 0 18 18"><defs><linearGradient id="aa5994b0-7cc1-426e-80f1-5365573f8425" x1="5.77" y1="7.08" x2="5.88" y2="17.58" gradientUnits="userSpaceOnUse"><stop offset="0" stop-color="#32d4f5"/><stop offset="0.32" stop-color="#31d1f3"/><stop offset="0.53" stop-color="#2ec9eb"/><stop offset="0.7" stop-color="#29bade"/><stop offset="0.86" stop-color="#22a5cb"/><stop offset="1" stop-color="#198ab3"/><stop offset="1" stop-color="#198ab3"/></linearGradient></defs><title>Icon-machinelearning-163</title><path id="b9c253d2-19cf-459c-b9f4-aa31a074509f"  d="M15.08,11.65A6.25,6.25,0,1,1,7.41,1.77l.07-.05a6.25,6.25,0,0,1,7.6,9.93" fill="#f2f2f2"/><path d="M16.24,2.94A6.26,6.26,0,0,0,7.48,1.71l-.07.05A6.26,6.26,0,0,0,11.26,13a6.16,6.16,0,0,0,3.82-1.31h0A6.28,6.28,0,0,0,16.24,2.94ZM5.81,6.31a5.55,5.55,0,0,1,.61-2.13H7.93a10.84,10.84,0,0,0-.29,2.13Zm3-2.13h2.08V6.31H8.45A9.41,9.41,0,0,1,8.77,4.18Zm2.88,0h2.08a9.41,9.41,0,0,1,.32,2.13h-2.4Zm-.8,2.93V9.23H8.77a9.24,9.24,0,0,1-.32-2.12Zm.8,0h2.4a9.24,9.24,0,0,1-.32,2.12H11.65Zm3.21,0h1.82a5.61,5.61,0,0,1-.6,2.12H14.56A10,10,0,0,0,14.86,7.11Zm0-.8a10.13,10.13,0,0,0-.3-2.13h1.52a5.41,5.41,0,0,1,.6,2.13Zm.71-2.93H14.32a5.92,5.92,0,0,0-.88-1.66A5.4,5.4,0,0,1,15.57,3.38Zm-2.12,0h-1.8v-2A3.27,3.27,0,0,1,13.45,3.38Zm-2.6-2v2H9.05A3.27,3.27,0,0,1,10.85,1.34ZM7.91,2.4l0,0a5.39,5.39,0,0,1,1.1-.65,6.12,6.12,0,0,0-.88,1.67H6.93A5.05,5.05,0,0,1,7.91,2.4ZM5.81,7.11H7.64a10.74,10.74,0,0,0,.29,2.12H6.42A5.22,5.22,0,0,1,5.81,7.11Zm1.13,2.94H8.18a6.06,6.06,0,0,0,.88,1.66A5.35,5.35,0,0,1,6.94,10.05Zm2.11,0h1.8v2A3.27,3.27,0,0,1,9.05,10Zm2.6,2V10h1.8A3.27,3.27,0,0,1,11.65,12.08ZM14.59,11h0a5,5,0,0,1-1.16.68A5.82,5.82,0,0,0,14.32,10h1.25A5.68,5.68,0,0,1,14.59,11Z" fill="#0078d4"/><path d="M10.85,17.5H.89c-.31,0-.5-.51-.32-.77l3.43-5a.39.39,0,0,0,.07-.23V8.2a.2.2,0,0,0-.2-.2H3.69a.39.39,0,0,1-.39-.39V7.43A.39.39,0,0,1,3.69,7H8.06a.4.4,0,0,1,.39.4v.18A.4.4,0,0,1,8.06,8H7.87a.19.19,0,0,0-.19.2v3.31a.34.34,0,0,0,.07.22l3.43,5C11.36,17,11.17,17.5,10.85,17.5Z" fill="url(#aa5994b0-7cc1-426e-80f1-5365573f8425)"/><path d="M2.24,16.18l2.47-3.6a.87.87,0,0,0,.16-.52V10.61a.29.29,0,0,1,.29-.28h1.4a.29.29,0,0,1,.29.28v1.55a.6.6,0,0,0,.1.35l2.53,3.67a.22.22,0,0,1-.18.34H2.42A.22.22,0,0,1,2.24,16.18Z" fill="#fff"/></svg>
